!!! OTL: Berkowitz236
!!! Chapter: 1
!!! Section: II
!!! Page: 54
!!! Mode: 
!!! Encoder: DJB
**kern
*staff1
*I"Piano
=1-
*clefG2
*k[b-]
*d:
*met(c|)
*M2/2
4d/
4f/
4a/
8g/L
8f/J
=2
4e/
8f/L
8e/J
4d/
4r
=3
4f/
4a/
4cc\
8b-/L
8a/J
=4
8g/L
8b-/
8a/
8g/J
4f/
4r
=5
4g/
4c/
4cc\
8dd\L
8cc\J
=6
4.b-\
8cc\
2a/
=7
4a/
4f/
4d/
8e/L
8f/J
=8
!!linebreak:original
8g/L
8f/
8e/
8d/J
4c#/
4e/
=9
2d/
2r
==
*-
